X:28
T:Svens Schottis
C:Sven Ahlin
O:Ålstorp, Skåne
Z:Transcribed to abc by Patrik Månsson 080924
R:Schottis
M:2/4
L:1/16
Q:1/4=80
K:G
|: "G" D>B,DG D>B,DG | B2AG B2AG | "D" F>DFA d2cB |
[1 A2BA "G" G2FE :|[2 A2BA "G" GBcd]|: "C" e2g2e2g2 | "G" d>Bdg d>Bdg |
"D7" f2a2f2a2 |[1 "G" g>fg>a b>ag>f :|[2 a2gf "G" g4]|

